!!!COM: Palestrina, Giovanni Perluigi da
!!!OPR: Missa Aspice Domine
!!!OMD: Credo
!!!OTL: Et in Spiritum
**kern	**kern	**kern	**kern	**kern
*Ibass	*Itenor	*Itenor	*Icalto	*Icant
!Bassus	!Tenor 2	!Tenor 1	!Altus	!Cantus
*clefF4	*clefGv2	*clefGv2	*clefG2	*clefG2
*k[]	*k[]	*k[]	*k[]	*k[]
*D:dor	*D:dor	*D:dor	*D:dor	*D:dor
*M4/2	*M4/2	*M4/2	*M4/2	*M4/2
=143	=143	=143	=143	=143
0r	1.e	1.g	1.b	1.ee
.	2e	2g	2b	2ee
=144	=144	=144	=144	=144
0r	2c	2e	2cc	2ee
.	2A	2a	2cc	2ee
.	1e	1g#	2b	2.ee
.	.	.	2b	.
.	.	.	.	4dd
=145	=145	=145	=145	=145
0r	2.f	1a	2a	2cc
.	.	.	4d	1ff
.	4e	.	4e	.
.	2d	1a	4f	.
.	.	.	4g	.
.	2c	.	[2a	2ee
=146	=146	=146	=146	=146
0r	2B	2d	2a]	2dd
.	2B	2d	2g#	2dd
.	1A	1e	[1a	4cc
.	.	.	.	4b
.	.	.	.	4cc
.	.	.	.	4dd
=147	=147	=147	=147	=147
1.A	2r	2r	1a]	0ee
.	1e	1c	.	.
.	.	.	2r	.
2A	2e	2c	2a	.
=148	=148	=148	=148	=148
2F	1f	2c	2a	2r
2D	.	1d	2f	1dd
2.B-	2f	.	2d	.
.	4g	[2G	[2b-	2dd
4A	4f	.	.	.
=149	=149	=149	=149	=149
2G	4e	2G]	2b-]	2ee
.	4d	.	.	.
2F	1d	2A	2a	2ff
1E	.	1e	1g	1gg
.	2c#	.	.	.
=150	=150	=150	=150	=150
1D	1d	2r	1a	1ff#
.	.	1a	.	.
[1d	2r	.	2r	2r
.	[2f#	2a	[2a	[2dd
=151	=151	=151	=151	=151
2d]	2f#]	1d	2a]	2dd]
2d	2f#	.	2a	2dd
1G	1g	1d	1b	1dd
=152	=152	=152	=152	=152
1G	1g	2r	1b	1dd
.	.	1g	.	.
[1c	2.e	.	[1cc	[1ee
.	.	2g	.	.
.	4f	.	.	.
=153	=153	=153	=153	=153
2c]	2g	2e	2cc]	2ee]
2A	2a	2e	2cc	2ee
2A	1a	2c	2cc	2ee
[2d	.	4d	[2a	[2ff
.	.	4e	.	.
=154	=154	=154	=154	=154
2d]	2d	4f	2a]	2ff]
.	.	4g	.	.
2c#	2e	1a	2a	2ee
1d	1f	.	1a	1dd
.	.	2d	.	.
=155	=155	=155	=155	=155
0A	1e	2r	1a	1cc#
.	.	1e	.	.
.	1r	.	2r	2r
.	.	2e	[2a	[2ee
=156	=156	=156	=156	=156
0r	2r	1f	2a]	2ee]
.	1a	.	2a	2dd
.	.	1e	1b	1ee
.	2g#	.	.	.
=157	=157	=157	=157	=157
0r	1a	1A	2.cc	1ee
.	.	.	4b	.
.	2d	1r	2a	1ff
.	2a	.	2cc	.
=158	=158	=158	=158	=158
0r	2g	2r	2b	2ee
.	2f	1a	2a	2dd
.	1e	.	1b	1ee
.	.	2g#	.	.
=159	=159	=159	=159	=159
2r	1.f	1a	2r	0r
1d	.	.	1a	.
.	.	1A	.	.
2c#	2e	.	2a	.
=160	=160	=160	=160	=160
1d	2d	1a	2f	0r
.	2f	.	2d	.
1G	4e	2.g	1b-	.
.	4d	.	.	.
.	[2d	.	.	.
.	.	4f	.	.
=161	=161	=161	=161	=161
1A	2d]	0e	0a	1r
.	4c	.	.	.
.	4B	.	.	.
1A	1c#	.	.	2r
.	.	.	.	[2ee
=162	=162	=162	=162	=162
2r	1d	1f	1a	2ee]
1d	.	.	.	2dd
.	2A	2e	2a	1ee
2c#	2A	2e	2a	.
=163	=163	=163	=163	=163
1d	2a	2d	2f	2ff
.	2a	2f	2d	2ff
2G	2.g	2g	1b-	2ee
2G	.	2d	.	[2dd
.	4f	.	.	.
=164	=164	=164	=164	=164
1A	1e	1r	1a	2dd]
.	.	.	.	4cc
.	.	.	.	4b
2A	2e	1e	2r	2cc#
[2A	[2c#	.	[2a	[2ee
=165	=165	=165	=165	=165
2A]	2c#]	1A	2a]	2ee]
2D	2d	.	2a	2ff
2G	2d	2B	2g	2dd
2E	2G	2c#	2g	2ee
=166	=166	=166	=166	=166
4D	2A	1d	4f	1ff
4E	.	.	4g	.
4F	1a	.	4a	.
4G	.	.	4b	.
4A	.	1c	1cc	4ee
4B	.	.	.	4dd
2c	[2g	.	.	4ee
.	.	.	.	4ff
=167	=167	=167	=167	=167
4G	4g]	1.d	1b-	1gg
4A	4f	.	.	.
4B-	4d	.	.	.
4c	4e	.	.	.
2d	4f	.	1a	2ff
.	4g	.	.	.
2c#	2a	2A	.	[2ee
=168	=168	=168	=168	=168
1d	2.f	4d	0a	4ee]
.	.	4e	.	4dd
.	.	4f	.	1dd
.	4g	4d	.	.
1A	2a	1e	.	.
.	2e	.	.	2cc#
=169	=169	=169	=169	=169
1D	4f	1d	1a	1dd
.	4e	.	.	.
.	4d	.	.	.
.	4c#	.	.	.
2r	1d	1a	2r	1ff
2d	.	.	2a	.
=170	=170	=170	=170	=170
2e	1A	2a	2cc	2ee
2c	.	2a	2cc	2ee
1d	1r	1f#	1a	1dd
=171	=171	=171	=171	=171
2G	1r	2g	2b-	2dd
2G	.	2g	2b-	2dd
2.d	2r	2.f	2.a	2.dd
.	2d	.	.	.
4d	.	4f	4a	4dd
=172	=172	=172	=172	=172
1A	2e	1e	1a	2cc
.	2c	.	.	2ee
2r	2.d	1a	2r	1ff
2d	.	.	2a	.
.	4d	.	.	.
=173	=173	=173	=173	=173
2e	1A	2a	2cc	1ee
2c	.	2a	2cc	.
2.d	1r	2.f#	2.a	2.dd
4d	.	4f#	4a	4dd
=174	=174	=174	=174	=174
2G	0r	2g	2b-	2dd
2G	.	2g	2b-	2dd
[1d	.	[1f	[1a	[1dd
=175	=175	=175	=175	=175
2d]	1r	2f]	2a]	2dd]
2A	.	2e	2a	2cc
1A	2r	[1e	1a	4cc
.	.	.	.	4b
.	2A	.	.	4cc
.	.	.	.	4dd
=176	=176	=176	=176	=176
2r	2A	1e]	2r	0ee
2A	2A	.	2a	.
2A	2.c	2r	2a	.
2A	.	2e	2a	.
.	4d	.	.	.
=177	=177	=177	=177	=177
2.c	4e	2e	2g	0r
.	4f	.	.	.
.	2g	2e	1cc	.
4B	.	.	.	.
2A	2a	2f#	.	.
2G	2d	2g	[2b-	.
=178	=178	=178	=178	=178
2c	2e	2g	2b-]	0r
2d	2.f	2f	1a	.
1B-	.	1d	.	.
.	4e	.	.	.
.	2d	.	2g	.
=179	=179	=179	=179	=179
0A	2.c	1e	1a	2r
.	.	.	.	1ee
.	4d	.	.	.
.	2e	2r	2r	.
.	[2c	[2e	2a	2ee
=180	=180	=180	=180	=180
0r	2c]	2e]	2g	2.gg
.	2c	2e	1cc	.
.	.	.	.	4ff
.	2c	2.g	.	2ee
.	2G	.	2b	2dd
.	.	4f	.	.
=181	=181	=181	=181	=181
0r	2c	2e	2cc	2ee
.	2d	2d	2a	2.ff
.	2e	2g	2cc	.
.	.	.	.	4ee
.	2c	2a	2cc	[2ee
=182	=182	=182	=182	=182
0r	1d	1f	1a	2ee]
.	.	.	.	2dd
.	1A	1e	2.a	1ee
.	.	.	8g	.
.	.	.	8f	.
=183	=183	=183	=183	=183
0A	0c#	1r	1e	0ee
.	.	1e	[1a	.
=184	=184	=184	=184	=184
1D	1d	1f	2a]	1dd
.	.	.	2a	.
1A	1e	2e	1a	1cc
.	.	2A	.	.
=185	=185	=185	=185	=185
1E	1e	2r	1g#	1b
.	.	1e	.	.
2.A	2.e	.	2.a	2.cc
.	.	2A	.	.
4A	4e	.	4a	4cc
=186	=186	=186	=186	=186
2A	2e	2c	2a	2ee
2A	2e	2c	2a	2ee
1D	1f	1d	1a	1dd
=187	=187	=187	=187	=187
1A	1e	2c	1a	1ee
.	.	2c	.	.
2F	2a	2c	2cc	2ff
2F	2a	[2f	2cc	2ff
=188	=188	=188	=188	=188
0c	0g	2f]	2.cc	1gg
.	.	4e	.	.
.	.	4d	8b	.
.	.	.	8a	.
.	.	1e	2g	[1cc
.	.	.	2c	.
=189	=189	=189	=189	=189
1F	[0a	2.f	2r	1cc]
.	.	.	2f	.
.	.	4e	.	.
2r	.	2d	1f	2r
2A	.	2c	.	2cc
=190	=190	=190	=190	=190
1A	1a]	2r	2e	1cc
.	.	2e	2e	.
2G	1r	1e	1g	2b
2G	.	.	.	2b
=191	=191	=191	=191	=191
1B-	1r	2d	2f	1dd
.	.	2d	4f	.
.	.	.	4g	.
[1A	2r	1f	4a	2cc
.	.	.	4b	.
.	[2a	.	[2cc	4a
.	.	.	.	4b
=192	=192	=192	=192	=192
1A]	2a]	1e	2cc]	4cc
.	.	.	.	4dd
.	2e	.	2cc	2ee
1r	2g	1r	2b	2dd
.	2a	.	[2a	2cc
=193	=193	=193	=193	=193
1r	1e	1r	2a]	1b
.	.	.	2g#	.
2r	2.f	2r	2a	2a
[2d	.	4d	4f	[2ff
.	4e	4e	4g	.
=194	=194	=194	=194	=194
2d]	2d	4f	4a	2ff]
.	.	4g	4b	.
2A	1e	2a	2.cc	2ee
2c	.	2g	.	2ee
.	.	.	4b	.
2d	[2a	2f	4a	[2dd
.	.	.	4g	.
=195	=195	=195	=195	=195
1A	4a]	1e	1a	4dd]
.	4g	.	.	8cc
.	.	.	.	8b
.	2e	.	.	2cc#
2r	2f#	1d	2a	1dd
2G	2g	.	2b-	.
=196	=196	=196	=196	=196
1G	1d	2r	1b-	1.dd
.	.	2d	.	.
1F	2r	1d	1a	.
.	2f	.	.	4cc
.	.	.	.	4b
=197	=197	=197	=197	=197
1F	1f	1c	2f	2.a
.	.	.	2.a	.
.	.	.	.	4b
1A	2e	2c	.	1cc
.	.	.	4b	.
.	2e	[2e	[2cc	.
=198	=198	=198	=198	=198
1G	1g	2e]	4cc]	1r
.	.	.	8b-	.
.	.	.	8a	.
.	.	2.d	2b-	.
1d	2.f	.	1a	2r
.	.	4e	.	.
.	.	4f	.	2ff
.	4e	4g	.	.
=199	=199	=199	=199	=199
1d	2d	1a	1f	1ff
.	2a	.	.	.
1c	1a	4A	1cc	2ee
.	.	4B	.	.
.	.	4c	.	2ee
.	.	4d	.	.
=200	=200	=200	=200	=200
1c	1.g	4e	2cc	0gg
.	.	4d	.	.
.	.	4e	2cc	.
.	.	4f	.	.
1e	.	2g	2b	.
.	2e	2c	2g	.
=201	=201	=201	=201	=201
2d	4a	2f	2r	2ff
.	4g	.	.	.
1d	4f	4d	2.a	1ff
.	4e	4e	.	.
.	2d	4f	.	.
.	.	4g	4b	.
2A	2e	[2a	[2cc	2ee
=202	=202	=202	=202	=202
2c	2A	4a]	4cc]	2ee
.	.	4g	4b	.
2d	1a	2f	4a	2.dd
.	.	.	4g	.
1A	.	1e	2.a	.
.	.	.	.	8cc
.	.	.	.	8b
.	2e	.	.	2cc#
.	.	.	4a	.
=203	=203	=203	=203	=203
1D	1f#	[0d	1a	[0dd
[1G	[1g	.	[1b-	.
=204	=204	=204	=204	=204
2G]	2g]	0d]	2b-]	0dd]
2F#	2.a	.	2a	.
1G	.	.	1b-	.
.	4g	.	.	.
.	[2g	.	.	.
=205	=205	=205	=205	=205
1D	2g]	1d	1a	1dd
.	4f	.	.	.
.	4e	.	.	.
[1D	[1f#	[1d	[1a	[1dd
=206	=206	=206	=206	=206
1D_	1f#_	1d_	1a_	1dd_
1D_	1f#_	1d_	1a_	1dd_
=207	=207	=207	=207	=207
1D]	1f#]	1d]	1a]	1dd]
==	==	==	==	==
*-	*-	*-	*-	*-
!!!CDT: 1525/^1526/-1594/2/2
!!!OCY: Italia
!!!AGN: Mass (Parody)
!!!AST: renaissance, vocal
!!!ASW: Motet (Jacquet)
!!!PWK: Masses, Book 2
!!!RNB: Cadence finals: A
!!!YOR: Le Opere Complete, v. 4, p. 91
!!!YOO: Rome, Italy: Fratelli Scalera
!!!END: 1992//
!!!EED: John Miller
!!!YEC: Copyright 2000, John Miller
!!!YEN: United States of America
!!!YEM: Rights to all derivative electronic formats reserved.
!!!YEM: Refer to licensing agreement for further details.
!!!YEM: This file must be accompanied by the licensing agreement.
!!!YEM: A copy of the licensing agreement may be found at http://www.music-cog.ohio-state.edu/HumdrumDatabases/Palestrina/license.txt
!!!EMD: converted to Humdrum by Bret Aarden
